icons/blood_a_p_fill.svg

<svg width="48" height="48" viewBox="0 0 48 48" fill="none" xmlns="http://www.w3.org/2000/svg">
<path fill-rule="evenodd" clip-rule="evenodd" d="M20 10C20.4037 10 20.7678 10.2427 20.9231 10.6154L24.6645 19.5947C24.6706 19.6086 24.6765 19.6226 24.682 19.6368L25.9231 22.6154C26.1355 23.1252 25.8944 23.7107 25.3846 23.9231C24.8748 24.1355 24.2893 23.8944 24.0769 23.3846L23.0833 21H16.9167L15.9231 23.3846C15.7107 23.8944 15.1252 24.1355 14.6154 23.9231C14.1056 23.7107 13.8645 23.1252 14.0769 22.6154L15.318 19.6368C15.3235 19.6226 15.3294 19.6086 15.3355 19.5947L19.0769 10.6154C19.2322 10.2427 19.5963 10 20 10ZM22.25 19L20 13.6L17.75 19H22.25Z" fill="black"/>
<path d="M27 16C26.4477 16 26 16.4477 26 17C26 17.5523 26.4477 18 27 18H29V20C29 20.5523 29.4477 21 30 21C30.5523 21 31 20.5523 31 20V18H33C33.5523 18 34 17.5523 34 17C34 16.4477 33.5523 16 33 16H31V14C31 13.4477 30.5523 13 30 13C29.4477 13 29 13.4477 29 14V16H27Z" fill="black"/>
<path fill-rule="evenodd" clip-rule="evenodd" d="M10 34.0306C10 36.2228 11.7909 38 14 38H18V40H23V44H25V40H30V38H34C36.2091 38 38 36.2228 38 34.0306V10.3273C38 8.13508 36.2091 6.3579 34 6.3579H28L26.868 5.20243C25.2973 3.59919 22.7027 3.59919 21.132 5.20243L20 6.3579H14C11.7909 6.3579 10 8.13507 10 10.3273V34.0306ZM28 8.3579C27.4625 8.3579 26.9475 8.14152 26.5714 7.75754L25.4393 6.60207C24.6529 5.79931 23.3471 5.79931 22.5607 6.60207L21.4286 7.75754C21.0525 8.14151 20.5375 8.3579 20 8.3579H14C12.8809 8.3579 12 9.25408 12 10.3273V28.971C13.3017 28.9498 14.5326 28.9875 15.7005 29.0306C15.8789 29.0372 16.0555 29.0439 16.2306 29.0505C17.5139 29.0991 18.711 29.1444 19.8818 29.1195C22.5089 29.0636 24.924 28.6538 27.4919 27.1387C30.6105 25.2987 33.2501 25.8514 35.0748 26.9133C35.4135 27.1104 35.7222 27.3234 36 27.5388V10.3273C36 9.25408 35.1191 8.3579 34 8.3579H28Z" fill="black"/>
</svg>

<svg
  xmlns="http://www.w3.org/2000/svg"
  width="24"
  height="24"
  viewBox="0 0 24 24"
  fill="none"
  stroke="currentColor"
  stroke-width="2"
  stroke-linecap="round"
  stroke-linejoin="round"
>
  <path
    fill-rule="evenodd"
    d="M20 10a1 1 0 0 1 .923.615l3.742 8.98.017.042 1.241 2.978a1 1 0 0 1-1.846.77L23.083 21h-6.166l-.994 2.385a1 1 0 0 1-1.846-.77l1.241-2.978.018-.042 3.74-8.98A1 1 0 0 1 20 10m2.25 9L20 13.6 17.75 19z"
    clip-rule="evenodd"
  />
  <path d="M27 16a1 1 0 1 0 0 2h2v2a1 1 0 1 0 2 0v-2h2a1 1 0 1 0 0-2h-2v-2a1 1 0 1 0-2 0v2z" />
  <path
    fill-rule="evenodd"
    d="M10 34.03c0 2.193 1.79 3.97 4 3.97h4v2h5v4h2v-4h5v-2h4c2.21 0 4-1.777 4-3.97V10.328c0-2.192-1.79-3.97-4-3.97h-6l-1.132-1.155a4.02 4.02 0 0 0-5.736 0L20 6.358h-6c-2.21 0-4 1.777-4 3.97zM28 8.359a2 2 0 0 1-1.429-.6L25.44 6.602a2.02 2.02 0 0 0-2.878 0l-1.132 1.156a2 2 0 0 1-1.429.6h-6c-1.12 0-2 .896-2 1.97V28.97a69 69 0 0 1 3.7.06l.53.02c1.284.048 2.481.093 3.652.069 2.627-.056 5.042-.466 7.61-1.981 3.118-1.84 5.758-1.288 7.583-.226.338.197.647.41.925.626V10.327c0-1.073-.88-1.97-2-1.97z"
    clip-rule="evenodd"
  />
</svg>
